X:1
T:Sleepy Maggie -- Reel
R:reel
B:Ryan's Mammoth Collection
N:145
Z:Contributed by Ray Davies,  ray:davies99.freeserve.co.uk
M:C|
L:1/8
K:Bm
{g}vf2 de fBde | {g}f2 df eAce | {g}f2 de fBde | .f(^ga).f eAce ::
fBdB fBde | fBdB eAce | fBdB fBde | .f(^ga).f eAce ::
{g}f2 (db) Bfde | {g}f2 (db) AdBd | {g}f2 (db) Bfde | dbaf eAce ::
fBbB fBde | fBbB aAce | fBbB aB^gB | fB^gB aAce :|
